!!!OTL@@DE: Treue Liebe
!!!COM: &Auml;ltere Volksweise
!!!ODT: 1818
!!!OMD: M&auml;ssig langsam
!!!LYR: Volkslied aus: "Des Knaben Wunderhorn"
!!!LDT: 1808
!!!OCL: Erk, Ludwig
!!!GCO: Deutscher Liederschatz, Band 1
**kern	**kern	**kern
*staff3	*staff2	*staff1
*>[A,A,B]	*>[A,A,B]	*>[A,A,B]
*>norep[A,B]	*>norep[A,B]	*>norep[A,B]
*>A	*>A	*>A
*Ipiano	*Ipiano	*Ivox
*clefF4	*clefG2	*clefG2
*k[f#]	*k[f#]	*k[f#]
*G:	*G:	*G:
*M3/4	*M3/4	*M3/4
*MM62	*MM62	*MM62
*^	*	*
8G/L	4r	(8B/ 8g/L	8g/
8D/J	.	8d/) 8a/J	8a/
=1	=1	=1	=1
8r	2.GG\	4g/ 4b/	4b\
8D/L	.	.	.
8G/	.	4g/ 4b/	4b\
8D/J	.	.	.
8F#/L	.	(8a/ 8cc/L	8cc\
8D/J	.	8f#/) 8a/J	8a/
=2	=2	=2	=2
8r	2.GG\	8cc\ (8ee\L	(8ee\L
8D/L	.	8b\ 8dd\J)	8dd\J)
8G/	.	4b\ 4dd\	4dd\
8D/J	.	.	.
8G/L	.	8g\ (8b\L	8b\
8D/J	.	8b\ 8dd\J)	8dd\
*v	*v	*	*
=3	=3	=3
8DD/L	8b\ (8dd\L	(8dd\L
8D/	8a\ 8cc\J)	8cc\J)
8F#/	4a\ 4cc\	4cc\
8D/J	.	.
8F#\L	8b\ (8dd\L	8dd\
8D\J	8a\ 8cc\J)	8cc\
=4	=4	=4
*^	*	*
8r	2GG\	4.g/ 4.b/	4.b\
8D/L	.	.	.
8G/	.	.	.
8D/J	.	8r	8r
*v	*v	*	*
=:|!	=:|!	=:|!
*>B	*>B	*>B
*^	*	*
8G/L	4r	(8b/ 8dd/L	8dd\
8D/J	.	8g/) 8b/J	8b\
*v	*v	*	*
=5	=5	=5
8DD/	(8g/ 8b/L	(8b/L
4D\	8f#/) 8a/J	8a/J)
.	4f#/ 4a/	4a/
8D\	.	.
8F#\L	8cc\ (8ee\L	8ee\
8D\J	8a\ 8cc\J)	8cc\
=6	=6	=6
*^	*	*
8r	2GG\	(8a/ 8cc/L	(8cc\L
8D/L	.	8g/) 8b/J	8b\J)
8G/	.	4g/ 4b/	4b\
8D/J	.	.	.
8G/L	4r	(8b/ 8dd/L	8dd\
8D/J	.	8g/) 8b/J	8b\
*v	*v	*	*
=7	=7	=7
8DD/	(8g/ 8b/L	(8b/L
4D\	8f#/) 8a/J	8a/J)
.	4f#/ 4a/	4a/
8D\	.	.
8F#\L	8cc\ (8ee\L	8ee\
8D\J	8a\ 8cc\J)	8cc\
=8	=8	=8
*^	*	*
8r	2GG\	(8a/ 8cc/L	8cc\L
8D/L	.	8g/) 8b/J	8b\J
8G/	.	4g/ 4b/	4b\
8D/J	.	.	.
8G/L	4r	(8B/ 8g/L	8g/
8D/J	.	8d/) 8a/J	8a/
=9	=9	=9	=9
8r	2.GG\	4g/ 4b/	4b\
8D/L	.	.	.
8G/	.	4g/ 4b/	4b\
8D/J	.	.	.
8F#/L	.	(8a/ 8cc/L	8cc\
8D/J	.	8f#/) 8a/J	8a/
=10	=10	=10	=10
8r	2GG\	4cc\ (4ee\	(4ee\
8D/L	.	.	.
8G/	.	4b\ 4dd\)	4dd\)
8D/J	.	.	.
*v	*v	*	*
4EE/ 4E/	8g#\ (8b\L	8b\
.	8b\ 8dd\J)	8dd\
=11	=11	=11
*^	*	*
8r	2AA\	8b\ (8dd\L	(8dd\L
8E/L	.	8a\ 8cc\J)	8cc\J)
8A/	.	4a\ 4cc\	4cc\
*	*	*^	*
8E/J	.	.	.	.
*v	*v	*	*	*
4DD/ 4D/	8b/ (8dd/L	4f#\	8dd\
.	8a/ 8cc/J)	.	8cc\
*	*v	*v	*
=12	=12	=12
*^	*	*
4.G/	8G\L	4.d/ 4.g/ 4.b/	4.b\
.	8D\	.	.
.	8GG\J	.	.
*v	*v	*	*
8r;	8r;	8r;
==	==	==
*-	*-	*-
!!!ENC: Craig Stuart Sapp
!!!END: 2004/06/08/
!!!EFL: 096/651
